!!!OTL: Treue Liebe.
!!!OTL-incipit: SCHATZ WAS BIST DU DENN SO TRAURIG
!!!ARE: Europa, Mitteleuropa, Deutschland, Lothringen
!!!SCT: Z1170
!!!TXL: @@DE
!!!YEM: Copyright 1995, estate of Helmut Schaffrath.
**kern	**text
*ICvox	*
*M3/4	*
*k[b-e-a-]	*
*E-:	*
!LO:TX:a:t=Aus Lotharingen.	!
{8g	Schatʒ,
8a-	was
=1	=1
4b-/	biſt
4g	du
8f	denn
8g	ſo
=2	=2
4a-	trau-
4f	-rig,
4r}	.
=3	=3
{8e-	Schatʒ,
8g	was
8g	biſt
8b-/	du
8g	denn
16fL	ſo
16e-J	.
=4	=4
8f	traurig,
8f}	.
{8g	ich
8g	bin
16b-L	al-
16a-J	.
16gL	-ler
16fJ	.
=5	=5
2g	Freu-
4f	-den
=6	=6
2e-}	voll!
{8g	Meinſt,
8a-	ich
=7	=7
4b-/	ſoll-
4g	-te
8f	dich
8g	ver-
=8	=8
4a-	-laſ-
4f	-ſen,
4r}	.
=9	=9
{8e-	meinſt,
8g	ich
8g	ſoll-
8b-/	-te
8g	dich
16fL	ver-
16e-J	.
=10	=10
8g	-laſ-
16e-L	-ſen,
16fJ}	.
{8g	du
16fL	ge-
16gJ	.
16b-L	-fällſt
16a-J	.
16gL	mir
16fJ	.
=11	=11
2g	all-
4f	-ʒu-
=12	=12
2e-}	-wohl!
==	==
!!!AGN: Liebes - Lied, Abschieds - Lied
!!!ONB: ESAC (Essen Associative Code) Database: ZUCCAL
!!!AMT: simple triple
!!!AIN: vox
!!!EED: Helmut Schaffrath
!!!EEV: 1.0
!!!GTL: V. Lieder der Minne.
!!!URL-scan: https://www.digitale-sammlungen.de/de/view/bsb11160573?page=360
!!!ENC: Anna Maria Matuszewska
!!!EEV: 2025/02/05
*-	*-
